public/icons/express.svg

<svg width="128" height="128" viewBox="0 0 128 128" fill="none" xmlns="http://www.w3.org/2000/svg">
<path d="M40.5299 77.82V50.74H41.9999V55C42.1735 54.8113 42.3339 54.6108 42.4799 54.4C43.0806 53.1531 44.0242 52.1033 45.2002 51.3736C46.3763 50.6439 47.7359 50.2645 49.1199 50.28C52.4699 50.18 55.1899 51.42 56.7899 54.4C57.8079 56.2512 58.3682 58.3192 58.4239 60.4311C58.4795 62.5431 58.029 64.6377 57.1099 66.54C55.6199 69.88 51.9399 71.54 47.9999 70.93C46.7738 70.8256 45.5934 70.4158 44.5663 69.738C43.5392 69.0603 42.6982 68.1362 42.1199 67.05V77.82H40.5299ZM41.9999 60.32C42.1299 61.64 42.1799 62.58 42.3299 63.5C42.9099 67.12 45.0499 69.27 48.4099 69.66C49.9876 69.9193 51.6063 69.6235 52.9904 68.823C54.3744 68.0225 55.438 66.7668 55.9999 65.27C56.6456 63.7304 56.9563 62.071 56.9115 60.402C56.8667 58.7331 56.4673 57.0928 55.7399 55.59C55.1401 54.2484 54.12 53.1384 52.8338 52.4276C51.5475 51.7168 50.0649 51.4439 48.6099 51.65C47.2438 51.749 45.9424 52.2712 44.8868 53.144C43.8312 54.0168 43.0738 55.1968 42.7199 56.52C42.4067 57.7717 42.1663 59.0405 41.9999 60.32V60.32ZM88.4099 64C88.1872 65.9066 87.2795 67.6675 85.8558 68.955C84.4321 70.2426 82.5892 70.9693 80.6699 71C74.5099 71.31 71.6199 67.22 71.1599 62.5C70.8406 59.9368 71.2568 57.3356 72.3599 55C73.1281 53.3979 74.3862 52.0818 75.952 51.2422C77.5179 50.4027 79.3104 50.0832 81.0699 50.33C82.7427 50.4718 84.3285 51.1362 85.6027 52.2292C86.877 53.3222 87.7751 54.7883 88.1699 56.42C88.4829 57.9061 88.7132 59.4084 88.8599 60.92H72.6699C72.3699 65.2 74.6699 68.64 77.9299 69.47C81.9899 70.47 85.4599 68.71 86.7199 64.85C86.9999 63.86 87.5099 63.72 88.4099 64V64ZM72.6699 59.55H87.1399C87.0499 54.99 84.2099 51.69 80.3599 51.64C75.9999 51.57 72.8599 54.75 72.6699 59.55ZM91.3899 64.1H92.8099C92.8623 65.1449 93.2018 66.155 93.7911 67.0195C94.3803 67.884 95.1965 68.5692 96.1499 69C97.3471 69.5387 98.6504 69.8006 99.9627 69.7659C101.275 69.7313 102.563 69.4011 103.73 68.8C104.366 68.5133 104.899 68.0383 105.256 67.4393C105.614 66.8403 105.779 66.1459 105.73 65.45C105.766 64.7788 105.583 64.114 105.208 63.5564C104.832 62.9987 104.286 62.5787 103.65 62.36C102.09 61.78 100.43 61.46 98.8399 60.95C97.1855 60.4789 95.5679 59.8873 93.9999 59.18C91.4399 57.93 91.2799 53.06 94.1799 51.52C95.6648 50.682 97.336 50.2293 99.0408 50.2031C100.746 50.1769 102.43 50.5781 103.94 51.37C104.855 51.8755 105.593 52.6479 106.058 53.5841C106.523 54.5203 106.691 55.5758 106.54 56.61H105.32C105.32 56.55 105.21 56.5 105.21 56.44C105.06 52.55 101.8 51.35 98.2999 51.69C97.2551 51.8189 96.2402 52.1267 95.2999 52.6C94.7349 52.8583 94.2641 53.2857 93.9525 53.8231C93.6408 54.3605 93.5036 54.9813 93.5599 55.6C93.5616 56.2189 93.7548 56.8222 94.1128 57.3271C94.4709 57.8319 94.9763 58.2137 95.5599 58.42C97.0999 58.98 98.7099 59.34 100.29 59.78C101.56 60.13 102.88 60.36 104.11 60.78C104.978 61.0646 105.739 61.6061 106.293 62.3329C106.846 63.0597 107.166 63.9374 107.21 64.85C107.358 65.8499 107.188 66.8711 106.723 67.7686C106.258 68.6662 105.522 69.3944 104.62 69.85C101.28 71.74 95.7799 71.24 93.3299 68.85C92.709 68.2255 92.2178 67.4843 91.8849 66.669C91.5519 65.8537 91.3837 64.9806 91.3899 64.1ZM125.21 56.61H123.88C123.88 56.43 123.81 56.27 123.79 56.12C123.768 55.1231 123.405 54.1638 122.76 53.4028C122.116 52.6419 121.23 52.1254 120.25 51.94C118.401 51.4096 116.429 51.5045 114.64 52.21C113.933 52.4128 113.31 52.8388 112.865 53.4246C112.42 54.0103 112.176 54.7243 112.17 55.46C112.145 56.1825 112.37 56.8914 112.807 57.4671C113.245 58.0429 113.867 58.45 114.57 58.62C116.57 59.24 118.62 59.62 120.65 60.18C121.308 60.3379 121.956 60.5349 122.59 60.77C123.537 61.1089 124.36 61.7257 124.951 62.5397C125.542 63.3537 125.874 64.3272 125.903 65.3328C125.933 66.3384 125.658 67.3295 125.115 68.1764C124.572 69.0233 123.786 69.6868 122.86 70.08C121.449 70.7208 119.919 71.0598 118.369 71.0753C116.82 71.0908 115.284 70.7825 113.86 70.17C112.689 69.665 111.701 68.8135 111.029 67.7301C110.357 66.6466 110.032 65.3833 110.1 64.11H111.4C111.64 65.2703 112.16 66.3545 112.914 67.2686C113.668 68.1828 114.633 68.8994 115.727 69.3564C116.82 69.8135 118.008 69.9971 119.188 69.8914C120.369 69.7857 121.505 69.394 122.5 68.75C123.106 68.4352 123.609 67.9532 123.949 67.3612C124.289 66.7692 124.453 66.092 124.42 65.41C124.45 64.7384 124.26 64.0753 123.88 63.5213C123.499 62.9673 122.948 62.5525 122.31 62.34C120.75 61.76 119.09 61.45 117.5 60.94C115.836 60.4761 114.208 59.8913 112.63 59.19C110.13 57.96 109.93 53.13 112.78 51.59C114.283 50.7169 115.987 50.2479 117.725 50.2287C119.464 50.2094 121.178 50.6405 122.7 51.48C123.571 51.9997 124.271 52.7613 124.717 53.6721C125.163 54.5829 125.334 55.6036 125.21 56.61V56.61ZM38.0999 70.51C37.5763 70.7083 36.9983 70.7078 36.475 70.5088C35.9517 70.3098 35.5194 69.926 35.2599 69.43C33.6299 66.99 31.8299 64.66 30.0999 62.28L29.3499 61.28C27.2899 64.04 25.2299 66.69 23.3499 69.44C23.1049 69.9141 22.696 70.283 22.1993 70.478C21.7026 70.673 21.1519 70.6808 20.6499 70.5L28.3799 60.13L21.1899 50.76C21.7074 50.5731 22.2736 50.5706 22.7929 50.7527C23.3121 50.9349 23.7526 51.2907 24.0399 51.76C25.7099 54.2 27.5599 56.53 29.3999 59C31.2499 56.55 33.0799 54.21 34.7899 51.79C35.0362 51.3236 35.4453 50.964 35.9394 50.7796C36.4336 50.5953 36.9783 50.5989 37.4699 50.79L34.6799 54.49C33.4299 56.14 32.1999 57.8 30.8999 59.41C30.7951 59.5038 30.7113 59.6186 30.654 59.747C30.5966 59.8754 30.5669 60.0144 30.5669 60.155C30.5669 60.2956 30.5966 60.4346 30.654 60.563C30.7113 60.6914 30.7951 60.8062 30.8999 60.9C33.2899 64.07 35.6599 67.25 38.0999 70.51V70.51ZM70.9199 50.66V52.06C69.9085 51.9937 68.8944 52.1401 67.9431 52.49C66.9918 52.8398 66.1244 53.3852 65.397 54.091C64.6695 54.7968 64.0981 55.6473 63.7197 56.5876C63.3412 57.5279 63.1642 58.537 63.1999 59.55V70.55H61.7699V50.74H63.1699V54.8C64.8999 51.84 67.5699 50.74 70.9199 50.66V50.66ZM2.12988 60C2.33988 59 2.46988 57.91 2.75988 56.89C4.48988 50.74 11.5399 48.18 16.3899 51.99C19.2299 54.22 19.9399 57.38 19.7999 60.94H3.79988C3.53988 67.3 8.12988 71.14 13.9999 69.18C14.9521 68.8394 15.8045 68.267 16.4801 67.5146C17.1558 66.7621 17.6334 65.8532 17.8699 64.87C18.1799 63.87 18.6799 63.7 19.6299 63.99C19.4734 65.2074 19.043 66.3735 18.3709 67.4006C17.6989 68.4277 16.8028 69.2891 15.7499 69.92C14.0103 70.8713 12.0144 71.2481 10.0477 70.9967C8.08102 70.7452 6.24418 69.8784 4.79988 68.52C3.37104 66.9134 2.50709 64.8835 2.33988 62.74C2.33988 62.4 2.20988 62.06 2.13988 61.74C2.13322 61.1467 2.12988 60.5667 2.12988 60V60ZM3.81988 59.57H18.2899C18.1999 54.96 15.2899 51.69 11.4099 51.66C7.08988 51.6 3.99988 54.8 3.80988 59.55L3.81988 59.57Z" fill="black"/>
</svg>

<svg xmlns="http://www.w3.org/2000/svg" fill="none" style="background-color:#fff" viewBox="0 0 128 128"><path fill="#000" d="M40.53 77.82V50.74H42V55c.173-.189.334-.39.48-.6a7.28 7.28 0 0 1 6.64-4.12c3.35-.1 6.07 1.14 7.67 4.12a13.241 13.241 0 0 1 .32 12.14c-1.49 3.34-5.17 5-9.11 4.39a7.369 7.369 0 0 1-5.88-3.88v10.77h-1.59ZM42 60.32c.13 1.32.18 2.26.33 3.18.58 3.62 2.72 5.77 6.08 6.16A6.91 6.91 0 0 0 56 65.27a11.77 11.77 0 0 0-.26-9.68 6.77 6.77 0 0 0-7.13-3.94 6.59 6.59 0 0 0-5.89 4.87 33.4 33.4 0 0 0-.72 3.8ZM88.41 64a7.92 7.92 0 0 1-7.74 7c-6.16.31-9.05-3.78-9.51-8.5a13.62 13.62 0 0 1 1.2-7.5 8.37 8.37 0 0 1 8.71-4.67 8 8 0 0 1 7.1 6.09c.313 1.486.543 2.988.69 4.5H72.67c-.3 4.28 2 7.72 5.26 8.55 4.06 1 7.53-.76 8.79-4.62.28-.99.79-1.13 1.69-.85Zm-15.74-4.45h14.47c-.09-4.56-2.93-7.86-6.78-7.91-4.36-.07-7.5 3.11-7.69 7.91Zm18.72 4.55h1.42a5.689 5.689 0 0 0 3.34 4.9 8.73 8.73 0 0 0 7.58-.2 3.406 3.406 0 0 0 2-3.35 3.096 3.096 0 0 0-2.08-3.09c-1.56-.58-3.22-.9-4.81-1.41A35.246 35.246 0 0 1 94 59.18c-2.56-1.25-2.72-6.12.18-7.66a10.21 10.21 0 0 1 9.76-.15 5.14 5.14 0 0 1 2.6 5.24h-1.22c0-.06-.11-.11-.11-.17-.15-3.89-3.41-5.09-6.91-4.75a9.17 9.17 0 0 0-3 .91 2.999 2.999 0 0 0-1.74 3 3 3 0 0 0 2 2.82c1.54.56 3.15.92 4.73 1.36 1.27.35 2.59.58 3.82 1a4.513 4.513 0 0 1 3.1 4.07 4.812 4.812 0 0 1-2.59 5c-3.34 1.89-8.84 1.39-11.29-1a6.67 6.67 0 0 1-1.94-4.75Zm33.82-7.49h-1.33c0-.18-.07-.34-.09-.49a4.35 4.35 0 0 0-3.54-4.18 8.73 8.73 0 0 0-5.61.27 3.41 3.41 0 0 0-2.47 3.25 3.14 3.14 0 0 0 2.4 3.16c2 .62 4.05 1 6.08 1.56.658.158 1.306.355 1.94.59a5 5 0 0 1 .27 9.31 11.131 11.131 0 0 1-9 .09 6.238 6.238 0 0 1-3.76-6.06h1.3a7.283 7.283 0 0 0 4.327 5.246 7.286 7.286 0 0 0 6.773-.606 3.567 3.567 0 0 0 1.92-3.34 3.09 3.09 0 0 0-2.11-3.07c-1.56-.58-3.22-.89-4.81-1.4a35.4 35.4 0 0 1-4.87-1.75c-2.5-1.23-2.7-6.06.15-7.6a10.067 10.067 0 0 1 9.92-.11 5.23 5.23 0 0 1 2.51 5.13ZM38.1 70.51a2.29 2.29 0 0 1-2.84-1.08c-1.63-2.44-3.43-4.77-5.16-7.15l-.75-1c-2.06 2.76-4.12 5.41-6 8.16a2.2 2.2 0 0 1-2.7 1.06l7.73-10.37-7.19-9.37a2.39 2.39 0 0 1 2.85 1c1.67 2.44 3.52 4.77 5.36 7.24 1.85-2.45 3.68-4.79 5.39-7.21a2.15 2.15 0 0 1 2.68-1l-2.79 3.7c-1.25 1.65-2.48 3.31-3.78 4.92a.998.998 0 0 0 0 1.49c2.39 3.17 4.76 6.35 7.2 9.61Zm32.82-19.85v1.4a7.25 7.25 0 0 0-7.72 7.49v11h-1.43V50.74h1.4v4.06c1.73-2.96 4.4-4.06 7.75-4.14ZM2.13 60c.21-1 .34-2.09.63-3.11 1.73-6.15 8.78-8.71 13.63-4.9 2.84 2.23 3.55 5.39 3.41 8.95h-16c-.26 6.36 4.33 10.2 10.2 8.24a6.09 6.09 0 0 0 3.87-4.31c.31-1 .81-1.17 1.76-.88a8.12 8.12 0 0 1-3.88 5.93 9.4 9.4 0 0 1-10.95-1.4 9.85 9.85 0 0 1-2.46-5.78c0-.34-.13-.68-.2-1A155.08 155.08 0 0 1 2.13 60Zm1.69-.43h14.47c-.09-4.61-3-7.88-6.88-7.91-4.32-.06-7.41 3.14-7.6 7.89l.01.02Z"/></svg>
